X:1
T:Abre a janela
T:Arlindo Marques Júnior e Roberto Roberti
T:Abre a janela
T:Arr. Levi Alves
T:Levi Alves
T:Levi Alves
T:Levi Alves
T:Levi Alves
C:Orlando Silva
Z:Levi Alves
%%score 1 2 3
L:1/8
Q:1/4=100
M:2/4
K:C
V:1 treble-8 nm="Violão" snm="Viol."
V:2 treble transpose=-2 nm="Clarinete em B♭" snm="Cl. em B♭"
V:3 bass nm="Trombone" snm="Tbn."
V:1
"^Samba" z2 |"C" z4 |"C7/Bb" z4 |"F/A" z4 |"Fm/Ab" z4 |"C/G" z4 |"G/B" z2"G" z2 |"C" z4 | %8
"Bb/C" z4 |"F" z4 |"Ab#5" z4 |"C/G" z4 |"A7" z4 |"C/G""A7" z4 |"Dm7""G7" z4 |"C" z4 | %16
"G7b13""G7" z4 |:S"C" z4 |"F/G" z4 |"C" z4 |"G7" z4 |"C" z4 |"C#other" z4 |"Dm" z4 |"Dm" z4 | %25
"C" z4 |"C7/Bb" z4 |"F/A" z4 |"Fm/Ab" z4 |"C""A7" z4!dacoda! |"Dm""G7" z4 |1"C" z4 || %32
"D7b9""G7" z4 :|2"C" z4 ||"C""C#other""_Livre" z4 |"Dm" z4 |"Dm" z4 |"Dm" z4 |"Dm" z4 |"C" z4 | %40
"C" z4 |"C" z4 |"C" z4 |"C7" z4 |"C7/Bb" z4 |"F" z4 |"Fm" z4 |"C" z4 |"F" z4 |"G7" z4 | %50
 z/ G z/ z/ G z/ | z/ G z/ z2 | z4!D.S.! ||O"Dm""G7" z4 |"C" z4 |"F/G" z4 |"C" z4 |"C7/G" z4 | %58
"F" z4 |"F/A" z4 |"C/G" z4 |"G/B""G" z4 |"C""^Breque" c z z2 | z/"^Todos" EG/ A/GE/ | C2"C69" z2 |] %65
V:2
[K:D] z2 | (d4 | ^B4) | B2 d/e(g/ | g2) (BA) | d2 (FG) | A z2 z/ A/ | d2 z2 | z4 | d2 AB | =c2 z2 | %11
 d2 d/e(g/ | g2) (BA) | d2 FG | A z2 c | d z z2 | z A B/c(d/ |: d2) e/cd/- | d2 e/c(d/ | d4) | %20
 z2 z A | (fe) d/c(B/ | B/)A(G/ G/)FA/ | TA4 | G2 .F.G | A2 (Bc) | d2 (ef) | a/g(B/ B2) | z2 z A | %29
 f/f(f/ f)d | e/e(e/ e)d |1 f/e(d/ d2) || z A B/cd/ :|2 f/e(d/ d2) || z2 A^A | B>(g g/)ec/ | %36
 c2 (Ac) | B/B(!>!B/ B2) | z2 (A^A) | B2 f/d(B/ | B2) .A.c | .B/.B(!>!B/ B2) | z2 c/d(a/ | %43
 a2) (cd) | !>!a2 c/d(a/ | a4) | g2 (de | f2) e<d | Bc d/^d(e/ | e4) | z/({ab)} a z({ab)} a z/ | %51
 z/({ab)} a z/({ab)} !-(!Pa2 | !-)!TG.A .B.c || e/e(e/ e)d | f/e(d/ d2) | z4 | (d4 | ^B4) | %58
 B2 d/e(g/ | g2) (BA) | d2 (FG) | A z f/ff/ | d z z2 | z/ FA/ B/AF/ | D2 ^B2 |] %65
V:3
 B,/C(G/ | G2) B,C | !>!G2 ^A,/C(G/ | G4) | F2 CD | E2 DC | D2 CB, | .C z .B,2 | G, z B,/C(G/ | %9
 G2) B,C | !>!G2 B,/C(G/ | G4) | F2 ^CD | E2 DC | D2 CB, | C z B,^A, | A, z z2 |: C2 z2 | z4 | %19
 z2 E,/D,C,/ | A,,2 G,,2 | C,4 | ^C,4 | D,4 | A, z z2 | C,2 C,/C,C,/ | ^A,,2 A,,/A,,A,,/ | %27
 A,,2 C,/D,E,/ | F,E, D,2 | C,2 A,,2 | D,2 G,2 |1 C,/C,C,/ C,2 || F,2 G,2 :|2 C2 B,/A,(G,/ || %34
 G,2) CB, |"_à vontade...." A,2 z2 | z4 | z4 | z2 E,^D, | C2 z2 | z4 | z4 | z4 | z4 | z4 | z4 | %46
 z4 | z4 | z4 | z4 | z/ G, z/ z/ G, z/ | z/ G, z/ z2 | z4 || D,2 G,2 | C,/C,C,/ C,2 | z2 B,/C(G/ | %56
 G2) B,C | !>!G2 ^A,/C(G/ | G4) | F2 CD | E2 DC | D z G,/G,G,/ | .C z z2 | z/ E,G,/ A,/G,E,/ | %64
 C,2 E,2 |] %65

